static/data/images/sponsors/rebelappstudio.svg

<svg clip-rule="evenodd" fill-rule="evenodd" stroke-linejoin="round" stroke-miterlimit="2" viewBox="0 0 275 111" xmlns="http://www.w3.org/2000/svg"><g transform="matrix(1.69405 0 0 1.69405 -9.605 -60.002)"><path d="m164.037 56.694h-14.715l-6.913-20.094h-13.957l-2.159 5.428h-25.183l-2.138 5.428h-27.32l-2.126 5.428h-25.716l-2.105 5.427h-29.459l-5.396 13.671 9.604 27.659h117.029l33.288-34.304z" fill="#141332" fill-rule="nonzero"/><path d="m165.163 56.338c-.156-.491-.611-.825-1.126-.825h-13.873s-6.639-19.297-6.639-19.297c-.164-.477-.612-.796-1.116-.796h-13.957c-.484 0-.919.295-1.097.744l-1.863 4.683h-24.382c-.485 0-.921.297-1.099.748l-1.843 4.68h-26.516c-.486 0-.922.298-1.1.75l-1.831 4.678h-24.911c-.487 0-.924.299-1.1.754l-1.813 4.674h-28.651c-.485 0-.92.296-1.098.747l-5.396 13.671c-.104.262-.11.554-.017.82l9.604 27.66c.165.475.613.793 1.115.793h117.029c.32 0 .625-.129.848-.358l33.287-34.305c.302-.312.409-.764.278-1.179zm-1.126.356h-14.715l-6.913-20.094h-13.957l-2.159 5.428h-25.183l-2.138 5.428h-27.32l-2.126 5.428h-25.716l-2.105 5.427h-29.459l-5.396 13.671 9.604 27.659h117.029l33.288-34.304z" fill="#fff"/></g><g fill-rule="nonzero"><path d="m140.04 3.349 6.815 20.093h14.714l1.877 5.418h-22.319l-8.79-25.511z" fill="#fb525d" transform="matrix(1.69405 0 0 1.69405 -11.605 2)"/><path d="m126.707 17.926 1.778 5.122h-14.913l1.679 4.728h12.542l1.778 5.319h-12.542l1.777 5.122h15.505l1.778 5.221h-23.109l-8.691-25.512z" fill="#fb525d" transform="matrix(1.69405 0 0 1.69405 -10.605 -13.5)"/><path d="m101.524 44.719c3.161 1.182 5.728 3.152 6.518 5.614 1.482 4.236-1.777 7.683-8.295 7.683h-15.505l-8.691-25.511h14.517c6.123 0 11.654 3.053 13.036 7.289.692 1.871 0 3.644-1.58 4.925zm-4.345 8.471c2.568 0 3.851-1.281 3.358-2.955-.593-1.773-2.765-2.955-5.333-2.955h-7.407l1.975 5.811h7.407zm-12.839-15.859 1.877 5.418h6.814c2.074 0 3.259-1.084 2.667-2.66-.593-1.576-2.469-2.659-4.543-2.659h-6.815" fill="#fb525d" transform="matrix(1.69405 0 0 1.69405 -11.605 -29.001)"/><path d="m69.822 47.083 1.778 5.122h-14.913l1.679 4.629h12.542l1.877 5.319h-12.543l1.679 5.023h15.604l1.778 5.122h-23.11l-8.789-25.215z" fill="#fb525d" transform="matrix(1.69405 0 0 1.69405 -11.605 -44.502)"/><path d="m39.996 77.617 11.159 9.554h-9.085l-9.382-8.274h-4.543l2.864 8.274h-7.605l-8.789-25.511h13.332c7.407 0 13.925 3.644 15.604 8.471 1.086 3.053-.494 5.811-3.555 7.486zm-7.802-3.448c3.061 0 4.543-1.674 3.851-3.644-.691-1.97-3.259-3.645-6.32-3.645h-5.629l2.469 7.289z" fill="#fb525d" transform="matrix(1.69405 0 0 1.69405 -9.605 -60.002)"/><path d="m136.878 78.208c5.135 0 7.901 2.561 6.716 6.008-1.186 3.448-5.827 6.403-11.259 6.403h-3.555l-1.778 5.22h-5.333l6.024-17.631zm-3.16 8.865c2.074 0 3.95-1.281 4.444-2.66.494-1.477-.494-2.659-2.568-2.659h-3.753l-1.777 5.319z" fill="#fff" transform="matrix(.75281869737 0 0 .75281869737 128.414318647 10.901572371)"/><path d="m117.424 78.208c5.135 0 7.9 2.561 6.715 6.008-1.185 3.448-5.827 6.403-11.258 6.403h-3.556l-1.777 5.22h-5.333l6.024-17.631zm-3.161 8.865c2.074 0 3.951-1.281 4.444-2.66.494-1.477-.493-2.659-2.567-2.659h-3.753l-1.778 5.319z" fill="#fff" transform="matrix(.75281869737 0 0 .75281869737 128.414318647 10.901572371)"/><path d="m98.165 78.208 2.667 17.631h-5.728l-.395-3.546h-9.185l-2.864 3.546h-5.629l14.715-17.631zm-10.172 10.638h6.518l-.987-6.6z" fill="#fff" transform="matrix(.75281869737 0 0 .75281869737 128.414318647 10.901572371)"/><path d="m32.59 99.779c2.173 0 4.543.394 6.123.985l-1.383 4.039c-1.382-.788-3.456-1.379-5.431-1.379-2.469 0-4.346.689-4.741 1.576-.889 2.462 11.259 1.182 9.185 7.19-1.087 3.251-5.531 5.713-10.864 5.713-3.752 0-5.826-.689-7.308-1.28l1.482-4.137c1.58.886 3.456 1.674 6.419 1.674 1.778 0 4.345-.394 4.74-1.576.889-2.462-10.962-1.28-8.987-7.19 1.087-3.251 5.432-5.615 10.765-5.615z" fill="#fff" transform="matrix(.75281869737 0 0 .75281869737 114.141318647 11.124572371)"/><path d="m58.07 100.075-1.284 3.743h-6.32l-4.741 13.888h-5.333l4.741-13.888h-6.222l1.185-3.743z" fill="#fff" transform="matrix(.75281869737 0 0 .75281869737 114.141318647 11.124572371)"/><path d="m91.746 100.075c6.715 0 11.06 3.447 9.184 8.865-1.876 5.516-8.493 8.766-15.307 8.766h-7.901l6.024-17.631zm-4.84 13.888c3.852 0 7.506-1.674 8.691-5.122 1.185-3.349-1.284-5.023-5.135-5.023h-2.568l-3.456 10.145z" fill="#fff" transform="matrix(.75281869737 0 0 .75281869737 114.141318647 11.124572371)"/><path d="m80.487 100.075-3.457 10.047c-1.975 5.713-7.012 7.978-12.937 7.978-5.926 0-9.481-2.265-7.506-7.978l3.457-10.047h5.333l-3.358 9.85c-1.185 3.447.889 4.531 3.358 4.531s5.333-1.084 6.419-4.531l3.358-9.85z" fill="#fff" transform="matrix(.75281869737 0 0 .75281869737 114.141318647 11.124572371)"/><path d="m111.1 100.075-6.024 17.631h-5.333l6.025-17.631z" fill="#fff" transform="matrix(.75281869737 0 0 .75281869737 114.141318647 11.124572371)"/><path d="m125.716 99.779c6.815 0 10.864 4.137 9.086 9.161-1.778 5.122-8.691 9.16-15.406 9.16-6.814 0-10.864-4.137-9.086-9.16 1.778-5.122 8.691-9.161 15.406-9.161zm-4.938 14.48c3.852 0 7.704-2.364 8.691-5.319.988-2.955-1.185-5.319-5.036-5.319-3.852 0-7.704 2.364-8.691 5.319-.988 2.955 1.185 5.319 5.036 5.319z" fill="#fff" transform="matrix(.75281869737 0 0 .75281869737 114.141318647 11.124572371)"/></g></svg>

<?xml version="1.0" encoding="UTF-8" standalone="no"?>
<!DOCTYPE svg PUBLIC "-//W3C//DTD SVG 1.1//EN" "http://www.w3.org/Graphics/SVG/1.1/DTD/svg11.dtd">
<svg width="100%" height="100%" viewBox="0 0 275 111" version="1.1" xmlns="http://www.w3.org/2000/svg" xmlns:xlink="http://www.w3.org/1999/xlink" xml:space="preserve" xmlns:serif="http://www.serif.com/" style="fill-rule:evenodd;clip-rule:evenodd;stroke-linejoin:round;stroke-miterlimit:2;">
    <g transform="matrix(1,0,0,1,-139.595,-819.979)">
        <g transform="matrix(1.69405,0,0,1.69405,129.99,759.977)">
            <path d="M164.037,56.694L149.322,56.694L142.409,36.6L128.452,36.6L126.293,42.028L101.11,42.028L98.972,47.456L71.652,47.456L69.526,52.884L43.81,52.884L41.705,58.311L12.246,58.311L6.85,71.982L16.454,99.641L133.483,99.641L166.771,65.337L164.037,56.694Z" style="fill:rgb(20,19,50);fill-rule:nonzero;"/>
            <path d="M165.163,56.338C165.007,55.847 164.552,55.513 164.037,55.513L150.164,55.513C150.164,55.513 143.525,36.216 143.525,36.216C143.361,35.739 142.913,35.42 142.409,35.42L128.452,35.42C127.968,35.42 127.533,35.715 127.355,36.164L125.492,40.847C125.492,40.847 101.11,40.847 101.11,40.847C100.625,40.847 100.189,41.144 100.011,41.595L98.168,46.275C98.168,46.275 71.652,46.275 71.652,46.275C71.166,46.275 70.73,46.573 70.552,47.025L68.721,51.703C68.721,51.703 43.81,51.703 43.81,51.703C43.323,51.703 42.886,52.002 42.71,52.457L40.897,57.131C40.897,57.131 12.246,57.131 12.246,57.131C11.761,57.131 11.326,57.427 11.148,57.878L5.752,71.549C5.648,71.811 5.642,72.103 5.735,72.369L15.339,100.029C15.504,100.504 15.952,100.822 16.454,100.822L133.483,100.822C133.803,100.822 134.108,100.693 134.331,100.464L167.618,66.159C167.92,65.847 168.027,65.395 167.896,64.98L165.163,56.338ZM164.037,56.694L149.322,56.694L142.409,36.6L128.452,36.6L126.293,42.028L101.11,42.028L98.972,47.456L71.652,47.456L69.526,52.884L43.81,52.884L41.705,58.311L12.246,58.311L6.85,71.982L16.454,99.641L133.483,99.641L166.771,65.337L164.037,56.694Z" style="fill:white;"/>
        </g>
        <g transform="matrix(1.69405,0,0,1.69405,127.99,821.979)">
            <path d="M140.04,3.349L146.855,23.442L161.569,23.442L163.446,28.86L141.127,28.86L132.337,3.349L140.04,3.349Z" style="fill:rgb(251,82,93);fill-rule:nonzero;"/>
        </g>
        <g transform="matrix(1.69405,0,0,1.69405,128.99,806.479)">
            <path d="M126.707,17.926L128.485,23.048L113.572,23.048L115.251,27.776L127.793,27.776L129.571,33.095L117.029,33.095L118.806,38.217L134.311,38.217L136.089,43.438L112.98,43.438L104.289,17.926L126.707,17.926Z" style="fill:rgb(251,82,93);fill-rule:nonzero;"/>
        </g>
        <g transform="matrix(1.69405,0,0,1.69405,127.99,790.978)">
            <path d="M101.524,44.719C104.685,45.901 107.252,47.871 108.042,50.333C109.524,54.569 106.265,58.016 99.747,58.016L84.242,58.016L75.551,32.505L90.068,32.505C96.191,32.505 101.722,35.558 103.104,39.794C103.796,41.665 103.104,43.438 101.524,44.719ZM97.179,53.19C99.747,53.19 101.03,51.909 100.537,50.235C99.944,48.462 97.772,47.28 95.204,47.28L87.797,47.28L89.772,53.091L97.179,53.091L97.179,53.19ZM84.34,37.331L86.217,42.749L93.031,42.749C95.105,42.749 96.29,41.665 95.698,40.089C95.105,38.513 93.229,37.43 91.155,37.43L84.34,37.43" style="fill:rgb(251,82,93);fill-rule:nonzero;"/>
        </g>
        <g transform="matrix(1.69405,0,0,1.69405,127.99,775.477)">
            <path d="M69.822,47.083L71.6,52.205L56.687,52.205L58.366,56.834L70.908,56.834L72.785,62.153L60.242,62.153L61.921,67.176L77.525,67.176L79.303,72.298L56.193,72.298L47.404,47.083L69.822,47.083Z" style="fill:rgb(251,82,93);fill-rule:nonzero;"/>
        </g>
        <g transform="matrix(1.69405,0,0,1.69405,129.99,759.977)">
            <path d="M39.996,77.617L51.155,87.171L42.07,87.171L32.688,78.897L28.145,78.897L31.009,87.171L23.404,87.171L14.615,61.66L27.947,61.66C35.354,61.66 41.872,65.304 43.551,70.131C44.637,73.184 43.057,75.942 39.996,77.617ZM32.194,74.169C35.255,74.169 36.737,72.495 36.045,70.525C35.354,68.555 32.786,66.88 29.725,66.88L24.096,66.88L26.565,74.169L32.194,74.169Z" style="fill:rgb(251,82,93);fill-rule:nonzero;"/>
        </g>
        <g transform="matrix(2.29611,0,0,2.29611,232.953,818.215)">
            <g transform="matrix(0.327867,0,0,0.327867,15.2677,5.5161)">
                <path d="M136.878,78.208C142.013,78.208 144.779,80.769 143.594,84.216C142.408,87.664 137.767,90.619 132.335,90.619L128.78,90.619L127.002,95.839L121.669,95.839L127.693,78.208L136.878,78.208ZM133.718,87.073C135.792,87.073 137.668,85.792 138.162,84.413C138.656,82.936 137.668,81.754 135.594,81.754L131.841,81.754L130.064,87.073L133.718,87.073Z" style="fill:white;fill-rule:nonzero;"/>
            </g>
            <g transform="matrix(0.327867,0,0,0.327867,15.2677,5.5161)">
                <path d="M117.424,78.208C122.559,78.208 125.324,80.769 124.139,84.216C122.954,87.664 118.312,90.619 112.881,90.619L109.325,90.619L107.548,95.839L102.215,95.839L108.239,78.208L117.424,78.208ZM114.263,87.073C116.337,87.073 118.214,85.792 118.707,84.413C119.201,82.936 118.214,81.754 116.14,81.754L112.387,81.754L110.609,87.073L114.263,87.073Z" style="fill:white;fill-rule:nonzero;"/>
            </g>
            <g transform="matrix(0.327867,0,0,0.327867,15.2677,5.5161)">
                <path d="M98.165,78.208L100.832,95.839L95.104,95.839L94.709,92.293L85.524,92.293L82.66,95.839L77.031,95.839L91.746,78.208L98.165,78.208ZM87.993,88.846L94.511,88.846L93.524,82.246L87.993,88.846Z" style="fill:white;fill-rule:nonzero;"/>
            </g>
        </g>
        <g transform="matrix(2.29611,0,0,2.29611,218.68,818.438)">
            <g transform="matrix(0.327867,0,0,0.327867,15.2677,5.5161)">
                <path d="M32.59,99.779C34.763,99.779 37.133,100.173 38.713,100.764L37.33,104.803C35.948,104.015 33.874,103.424 31.899,103.424C29.43,103.424 27.553,104.113 27.158,105C26.269,107.462 38.417,106.182 36.343,112.19C35.256,115.441 30.812,117.903 25.479,117.903C21.727,117.903 19.653,117.214 18.171,116.623L19.653,112.486C21.233,113.372 23.109,114.16 26.072,114.16C27.85,114.16 30.417,113.766 30.812,112.584C31.701,110.122 19.85,111.304 21.825,105.394C22.912,102.143 27.257,99.779 32.59,99.779Z" style="fill:white;fill-rule:nonzero;"/>
            </g>
            <g transform="matrix(0.327867,0,0,0.327867,15.2677,5.5161)">
                <path d="M58.07,100.075L56.786,103.818L50.466,103.818L45.725,117.706L40.392,117.706L45.133,103.818L38.911,103.818L40.096,100.075L58.07,100.075Z" style="fill:white;fill-rule:nonzero;"/>
            </g>
            <g transform="matrix(0.327867,0,0,0.327867,15.2677,5.5161)">
                <path d="M91.746,100.075C98.461,100.075 102.806,103.522 100.93,108.94C99.054,114.456 92.437,117.706 85.623,117.706L77.722,117.706L83.746,100.075L91.746,100.075ZM86.906,113.963C90.758,113.963 94.412,112.289 95.597,108.841C96.782,105.492 94.313,103.818 90.462,103.818L87.894,103.818L84.438,113.963L86.906,113.963Z" style="fill:white;fill-rule:nonzero;"/>
            </g>
            <g transform="matrix(0.327867,0,0,0.327867,15.2677,5.5161)">
                <path d="M80.487,100.075L77.03,110.122C75.055,115.835 70.018,118.1 64.093,118.1C58.167,118.1 54.612,115.835 56.587,110.122L60.044,100.075L65.377,100.075L62.019,109.925C60.834,113.372 62.908,114.456 65.377,114.456C67.846,114.456 70.71,113.372 71.796,109.925L75.154,100.075L80.487,100.075Z" style="fill:white;fill-rule:nonzero;"/>
            </g>
            <g transform="matrix(0.327867,0,0,0.327867,15.2677,5.5161)">
                <path d="M111.1,100.075L105.076,117.706L99.743,117.706L105.768,100.075L111.1,100.075Z" style="fill:white;fill-rule:nonzero;"/>
            </g>
            <g transform="matrix(0.327867,0,0,0.327867,15.2677,5.5161)">
                <path d="M125.716,99.779C132.531,99.779 136.58,103.916 134.802,108.94C133.024,114.062 126.111,118.1 119.396,118.1C112.582,118.1 108.532,113.963 110.31,108.94C112.088,103.818 119.001,99.779 125.716,99.779ZM120.778,114.259C124.63,114.259 128.482,111.895 129.469,108.94C130.457,105.985 128.284,103.621 124.433,103.621C120.581,103.621 116.729,105.985 115.742,108.94C114.754,111.895 116.927,114.259 120.778,114.259Z" style="fill:white;fill-rule:nonzero;"/>
            </g>
        </g>
    </g>
</svg>
